X: 30662
T: STOOGES' HONRPIPE
C:
%R: hornpipe, reel
B: Elias Howe "The Musician's Companion" Part 3 1844 p.66 #2
S: http://imslp.org/wiki/The_Musician's_Companion_(Howe,_Elias)
S: The above file has page 66 illegible; a readable copy was found at:
S: https://archive.org/stream/firstthirdpartof03howe/#page/66/mode/1up
Z: 2015 John Chambers <jc:trillian.mit.edu>
N: The [GF] in bar 14 has an F with a fragment of a stem, and may have been inked in by hand.
M: 2/4
L: 1/16
K: Bb
% - - - - - - - - - - - - - - - - - - - - - - - - -
dc |\
c2b2B2 gf | eedc BAGF | DFBF EGc[BG] | Acdc BAGF |\
B2b2 B2gf | edcB AGFE | DBDB GecA | B2B2B2 :|
|: dc |\
Bdce dfeg | B2ff cgga | baba ebge | g2f2 f2ga |\
baaf dBdf | gfge dB[GF]E | DBFB GecA | B2B2B2 :|
% - - - - - - - - - - - - - - - - - - - - - - - - -
